!!!OTL: WER BEKUEMMERT SICH
!!!ARE: Europa, Mitteleuropa, Deutschland, Thueringen; Sachsen; Elsass;
!!    Hessen, Schlesien; Brandenburg
!!!SCT: E1357
!!!YEM: Copyright 1995, estate of Helmut Schaffrath.
**kern
*ICvox
*Ivox
!! Mixed meters:  3/8; 2/4
*M3/8
*k[f#]
*G:
{16d
16d
=1
8.g
16g
16a
16a
=2
8b
8b}
{16g
16b
=3
*M2/4
8.dd
16b
8cc
8dd
=4
*M3/8
4b
8r}
=5
{16g
16b
=6
8dd
8dd
16ee
16dd
=7
16dd
16cc
8cc}
{16dd
16cc
=8
8b
8b
16dd
16b
=9
16b
16a
8a}
{16g
16b
=10
*M2/4
8.dd
16b
8cc
8dd
=11
4b
8r}
==
!!!AGN: Staende -, Soldaten -, Kriegs - Lied
!!!ONB: ESAC (Essen Associative Code) Database: ERK3
!!!AMT: irregular
!!!AIN: vox
!!!EED: Helmut Schaffrath
!!!EEV: 1.0
*-
